usr/share/icons/big-icons/symbolic/actions/format-text-color.svg

<svg xmlns="http://www.w3.org/2000/svg" viewBox="0 0 16 16">
  <defs id="defs3051">
    <style type="text/css" id="current-color-scheme">
      .ColorScheme-Text {
        color:#eff0f1;
      }
      </style>
  </defs>
 <path style="fill:currentColor;fill-opacity:1;stroke:none" 
       d="M 2 3 L 2 4 L 6 4 L 6 13 L 7 13 L 7 4 L 11 4 L 11 3 L 2 3 z M 12 7 C 11.61083 8.27687 10.63869 9.37115 10.21875 10.25 C 10.0718 10.5113 10 10.80798 10 11.125 C 10 12.16375 10.892 13 12 13 C 13.108 13 14 12.16375 14 11.125 C 14 10.80798 13.89698 10.5113 13.75 10.25 C 13.33006 9.37115 12.38916 8.27687 12 7 z "
     class="ColorScheme-Text"
     />
</svg>

<svg xmlns="http://www.w3.org/2000/svg" viewBox="0 0 16 16">
<defs id="defs3051">
<style id="current-color-scheme" type="text/css">
.ColorScheme-Text{color:#fcfcfc}
</style>
</defs>
<path d="M2 3v1h4v9h1V4h4V3zm10 4c-.39 1.277-1.361 2.371-1.781 3.25a1.77 1.77 0 0 0-.219.875c0 1.039.892 1.875 2 1.875s2-.836 2-1.875a1.8 1.8 0 0 0-.25-.875C13.33 9.371 12.39 8.277 12 7" class="ColorScheme-Text" style="fill:currentColor;fill-opacity:1;stroke:none"/>
</svg>
